svg/logo/xbox_fill.svg

<?xml version="1.0" encoding="UTF-8"?>
<svg width="24px" height="24px" viewBox="0 0 24 24" version="1.1" xmlns="http://www.w3.org/2000/svg" xmlns:xlink="http://www.w3.org/1999/xlink">
    <title>xbox_fill</title>
    <g id="Icon" stroke="none" stroke-width="1" fill="none" fill-rule="evenodd">
        <g id="Logo" transform="translate(-576.000000, -240.000000)" fill-rule="nonzero">
            <g id="xbox_fill" transform="translate(576.000000, 240.000000)">
                <path d="M24,0 L24,24 L0,24 L0,0 L24,0 Z M12.5935,23.2578 L12.5819,23.2595 L12.5109,23.295 L12.4919,23.2987 L12.4767,23.295 L12.4057,23.2595 C12.3958,23.2564 12.387,23.259 12.3821,23.2649 L12.378,23.2758 L12.3609,23.7031 L12.3659,23.7235 L12.3769,23.7357 L12.4805,23.8097 L12.4953,23.8136 L12.5071,23.8097 L12.6107,23.7357 L12.6233,23.7197 L12.6267,23.7031 L12.6096,23.2758 C12.6076,23.2657 12.601,23.2593 12.5935,23.2578 Z M12.8584,23.1453 L12.8445,23.1473 L12.6598,23.2397 L12.6499,23.2499 L12.6472,23.2611 L12.6651,23.6906 L12.6699,23.7034 L12.6784,23.7105 L12.8793,23.8032 C12.8914,23.8069 12.9022,23.803 12.9078,23.7952 L12.9118,23.7812 L12.8777,23.1665 C12.8753,23.1546 12.8674,23.147 12.8584,23.1453 Z M12.143,23.1473 C12.1332,23.1424 12.1222,23.1453 12.1156,23.1526 L12.1099,23.1665 L12.0758,23.7812 C12.0751,23.7927 12.0828,23.8019 12.0926,23.8046 L12.1083,23.8032 L12.3092,23.7105 L12.3186,23.7024 L12.3225,23.6906 L12.3404,23.2611 L12.3372,23.2485 L12.3278,23.2397 L12.143,23.1473 Z" id="MingCute"></path>
                <path d="M12,9.23489 C14.9074,12.1809 16.9556,15.6346 18.6681,19.4524 C16.8988,21.0366 14.5619,22 12,22 C9.43811,22 7.10122,21.0366 5.33186,19.4524 C7.04437,15.6346 9.09257,12.1809 12,9.23489 Z M5.5089,4.39281 C7.41772,5.4297 9.07854,6.59173 10.5416,7.86506 C7.65629,10.7992 5.58185,14.1786 3.8748,17.8306 C2.69487,16.1893 2,14.1758 2,12 C2,8.95449 3.36143,6.22696 5.5089,4.39281 Z M18.4911,4.39281 C20.6386,6.22696 22,8.95449 22,12 C22,14.1758 21.3051,16.1893 20.1252,17.8306 C18.4181,14.1786 16.3437,10.7992 13.4584,7.86506 C14.9215,6.59173 16.5823,5.4297 18.4911,4.39281 Z M12,2 C13.6752,2 15.2542,2.41193 16.6413,3.14002 C14.9042,4.15617 13.3692,5.27531 12,6.48337 C10.6308,5.27531 9.09578,4.15617 7.35873,3.14002 C8.74576,2.41193 10.3248,2 12,2 Z" id="形状" fill="#09244B"></path>
            </g>
        </g>
    </g>
</svg>

<svg xmlns="http://www.w3.org/2000/svg" width="24" height="24"><g fill="none" fill-rule="nonzero"><path d="M24 0v24H0V0h24ZM12.594 23.258l-.012.002-.071.035-.02.004-.014-.004-.071-.036c-.01-.003-.019 0-.024.006l-.004.01-.017.428.005.02.01.013.104.074.015.004.012-.004.104-.074.012-.016.004-.017-.017-.427c-.002-.01-.009-.017-.016-.018Zm.264-.113-.014.002-.184.093-.01.01-.003.011.018.43.005.012.008.008.201.092c.012.004.023 0 .029-.008l.004-.014-.034-.614c-.003-.012-.01-.02-.02-.022Zm-.715.002a.023.023 0 0 0-.027.006l-.006.014-.034.614c0 .012.007.02.017.024l.015-.002.201-.093.01-.008.003-.011.018-.43-.003-.012-.01-.01-.184-.092Z"/><path fill="#09244B" d="M12 9.235c2.907 2.946 4.956 6.4 6.668 10.217A9.963 9.963 0 0 1 12 22a9.963 9.963 0 0 1-6.668-2.548C7.044 15.635 9.092 12.181 12 9.235ZM5.509 4.393a27.892 27.892 0 0 1 5.033 3.472c-2.886 2.934-4.96 6.314-6.667 9.966A9.954 9.954 0 0 1 2 12a9.978 9.978 0 0 1 3.509-7.607Zm12.982 0A9.978 9.978 0 0 1 22 12c0 2.176-.695 4.19-1.875 5.83-1.707-3.651-3.781-7.03-6.667-9.965a27.895 27.895 0 0 1 5.033-3.472ZM12 2c1.675 0 3.254.412 4.641 1.14A29.47 29.47 0 0 0 12 6.483 29.472 29.472 0 0 0 7.359 3.14 9.957 9.957 0 0 1 12 2Z"/></g></svg>
